src/assets/images/icons/download-2-line.svg

<svg width="24" height="24" viewBox="0 0 24 24" fill="none" xmlns="http://www.w3.org/2000/svg">
<g clip-path="url(#clip0_58_16356)">
<path d="M13 10H18L12 16L6 10H11V3H13V10ZM4 19H20V12H22V20C22 20.2652 21.8946 20.5196 21.7071 20.7071C21.5196 20.8946 21.2652 21 21 21H3C2.73478 21 2.48043 20.8946 2.29289 20.7071C2.10536 20.5196 2 20.2652 2 20V12H4V19Z" fill="#181D27"/>
</g>
<defs>
<clipPath id="clip0_58_16356">
<rect width="24" height="24" fill="white"/>
</clipPath>
</defs>
</svg>

<svg xmlns="http://www.w3.org/2000/svg" width="24" height="24" fill="none" viewBox="0 0 24 24"><g clip-path="url(#a)"><path fill="#181d27" d="M13 10h5l-6 6-6-6h5V3h2zm-9 9h16v-7h2v8a1 1 0 0 1-1 1H3a1 1 0 0 1-1-1v-8h2z"/></g><defs><clipPath id="a"><path fill="#fff" d="M0 0h24v24H0z"/></clipPath></defs></svg>
